src/images/common/comfort/comfort-icon.svg

<svg width="43" height="50" viewBox="0 0 43 50" fill="none" xmlns="http://www.w3.org/2000/svg">
<path d="M41.9355 9.09498L22.2222 0.134409C21.6846 -0.0448029 21.147 -0.0448029 20.7885 0.134409L1.07527 9.09498C0.358423 9.4534 0 9.99104 0 10.7079V24.8656C0 30.0627 2.32975 34.9014 6.2724 38.1272L20.2509 49.5968C20.9677 50.1344 21.8638 50.1344 22.5806 49.5968L36.5591 38.1272C40.5018 34.9014 42.8315 30.0627 42.8315 24.8656V10.7079C43.0107 9.99104 42.6523 9.4534 41.9355 9.09498ZM39.4265 24.8656C39.4265 28.9875 37.6344 32.7509 34.4086 35.4391L21.5054 46.0125L8.60215 35.4391C5.37634 32.9301 3.58423 28.9875 3.58423 24.8656V11.7832L21.5054 3.71864L39.4265 11.7832V24.8656Z" fill="#DE383F"/>
<path d="M15.5914 20.2061C14.8746 19.4892 13.7993 19.4892 13.0824 20.2061C12.3656 20.9229 12.3656 21.9982 13.0824 22.7151L18.4588 28.0914C19.1756 28.8082 20.2509 28.8082 20.9677 28.0914L29.9283 19.1308C30.6452 18.414 30.6452 17.3387 29.9283 16.6219C29.2115 15.905 28.1362 15.905 27.4194 16.6219L19.7133 24.328L15.5914 20.2061Z" fill="#DE383F"/>
</svg>

<svg width="43" height="50" fill="none" xmlns="http://www.w3.org/2000/svg"><path d="M41.935 9.095L22.222.135c-.537-.18-1.075-.18-1.434 0L1.075 9.094C.358 9.453 0 9.991 0 10.708v14.158C0 30.063 2.33 34.9 6.272 38.127l13.979 11.47c.717.537 1.613.537 2.33 0l13.978-11.47a17.104 17.104 0 006.273-13.261V10.708c.179-.717-.18-1.255-.897-1.613zm-2.509 15.77c0 4.123-1.792 7.886-5.017 10.574L21.505 46.013 8.602 35.439c-3.226-2.509-5.018-6.451-5.018-10.573V11.783L21.505 3.72l17.921 8.064v13.083z" fill="#DE383F"/><path d="M15.591 20.206c-.716-.717-1.792-.717-2.509 0-.716.717-.716 1.792 0 2.51l5.377 5.375c.717.717 1.792.717 2.509 0l8.96-8.96c.717-.717.717-1.792 0-2.51-.716-.716-1.792-.716-2.509 0l-7.706 7.707-4.122-4.122z" fill="#DE383F"/></svg>
